X:1815
T:Charlie Harris's Polka
S:As played by The Big Squeeze, Edinburgh 1996
Z:Nigel Gatherer
L:1/4
M:2/4
K:D
d>B|AF DF|EF DF|AF AB|e2 d>B|AF DF|EF DF|AF AB|d2:|
z A|d>e fd|ef dB|AF AB|e3 A|d>e fd|ef dB|AF AB|d3 A|
d>e fd|ef dB|AF AB|e2 fe|df fg|af fg|af ef|d2|]
